X:63
T: Elment az én rózsám
O: Trunk (Bákó), 1929
Q: "Parlando" 1/4=104
L:1/4
K:A
AE F<G | (A>B) (FE) | 
B c d<c | B2 B z | 
d (c/B/) c<B | (A>B) (FE) | 
B =G A<=G | F2 F z | 

